X: 3
T: The Boyne Hunt
R: reel
M: 4/4
L: 1/8
K: Dmaj
BAFA DAFA|DAFA BEE2|BAFA DAFA|ABde fddB:|faa2 agaf|g3a bgeg|faa2 agaf|efde fdd2|faa2 agaf|g3a bgeg|f2fe dedB|ABde fddc||dfAd BdAd|dfAd feec|dfAd BdAF|ABde fddc|dfAd BdAd|dfAd feef|gefd ecdB|ABde fded||


Tune 142	Setting 27026

